public/assets/icons/settings.svg

<svg width="24" height="24" viewBox="0 0 24 24" fill="none" xmlns="http://www.w3.org/2000/svg">
<path d="M20.7439 15.7206L20.1043 15.3289V15.3289L20.7439 15.7206ZM19.7894 17.2794L20.429 17.6711V17.6711L19.7894 17.2794ZM3.25609 8.27942L2.61648 7.88775H2.61648L3.25609 8.27942ZM4.21064 6.72057L4.85025 7.11223L4.21064 6.72057ZM6.81852 6.06172L7.1771 5.403L7.1771 5.403L6.81852 6.06172ZM3.95487 10.7383L3.59629 11.397H3.59629L3.95487 10.7383ZM17.1815 17.9383L16.8229 18.597L16.8229 18.597L17.1815 17.9383ZM20.0451 13.2617L19.6866 13.9204V13.9205L20.0451 13.2617ZM4.21064 17.2794L3.57103 17.6711L3.57103 17.6711L4.21064 17.2794ZM3.25609 15.7206L3.8957 15.3289L3.8957 15.3289L3.25609 15.7206ZM19.7894 6.72058L20.429 6.32892V6.32892L19.7894 6.72058ZM20.7439 8.27943L20.1043 8.67109V8.67109L20.7439 8.27943ZM20.0451 10.7383L20.4037 11.397L20.0451 10.7383ZM17.1815 6.06174L17.5401 6.72046V6.72046L17.1815 6.06174ZM3.95487 13.2617L4.31345 13.9205H4.31345L3.95487 13.2617ZM6.81851 17.9383L6.45994 17.2795L6.45993 17.2795L6.81851 17.9383ZM17.08 6.11698L16.7214 5.45825L17.08 6.11698ZM6.92 6.11697L6.56142 6.77569L6.56142 6.77569L6.92 6.11697ZM17.08 17.883L17.4386 17.2243L17.4386 17.2243L17.08 17.883ZM6.92 17.883L7.27858 18.5418L7.27858 18.5418L6.92 17.883ZM11.0455 3.75H12.9545V2.25H11.0455V3.75ZM12.9545 20.25H11.0455V21.75H12.9545V20.25ZM11.0455 20.25C10.3631 20.25 9.88635 19.7389 9.88635 19.2H8.38635C8.38635 20.6493 9.61906 21.75 11.0455 21.75V20.25ZM14.1136 19.2C14.1136 19.7389 13.6369 20.25 12.9545 20.25V21.75C14.3809 21.75 15.6136 20.6493 15.6136 19.2H14.1136ZM12.9545 3.75C13.6369 3.75 14.1136 4.26107 14.1136 4.8H15.6136C15.6136 3.35071 14.3809 2.25 12.9545 2.25V3.75ZM11.0455 2.25C9.61906 2.25 8.38635 3.35071 8.38635 4.8H9.88635C9.88635 4.26107 10.3631 3.75 11.0455 3.75V2.25ZM20.1043 15.3289L19.1498 16.8878L20.429 17.6711L21.3835 16.1122L20.1043 15.3289ZM3.8957 8.67108L4.85025 7.11223L3.57103 6.32891L2.61648 7.88775L3.8957 8.67108ZM4.85025 7.11223C5.15889 6.6082 5.88055 6.40506 6.45993 6.72045L7.1771 5.403C5.93027 4.72428 4.31676 5.11109 3.57103 6.32891L4.85025 7.11223ZM4.31345 10.0795C3.75746 9.77688 3.6043 9.14696 3.8957 8.67108L2.61648 7.88775C1.85352 9.13373 2.32606 10.7055 3.59629 11.397L4.31345 10.0795ZM19.1498 16.8878C18.8411 17.3918 18.1195 17.5949 17.5401 17.2795L16.8229 18.597C18.0697 19.2757 19.6832 18.8889 20.429 17.6711L19.1498 16.8878ZM21.3835 16.1122C22.1465 14.8663 21.6739 13.2945 20.4037 12.603L19.6866 13.9205C20.2425 14.2231 20.3957 14.853 20.1043 15.3289L21.3835 16.1122ZM4.85025 16.8878L3.8957 15.3289L2.61648 16.1122L3.57103 17.6711L4.85025 16.8878ZM19.1498 7.11225L20.1043 8.67109L21.3835 7.88777L20.429 6.32892L19.1498 7.11225ZM20.1043 8.67109C20.3957 9.14697 20.2425 9.77689 19.6866 10.0795L20.4037 11.397C21.6739 10.7055 22.1465 9.13374 21.3835 7.88777L20.1043 8.67109ZM17.5401 6.72046C18.1195 6.40507 18.8411 6.60822 19.1498 7.11225L20.429 6.32892C19.6832 5.1111 18.0697 4.72429 16.8229 5.40301L17.5401 6.72046ZM3.8957 15.3289C3.6043 14.853 3.75746 14.2231 4.31345 13.9205L3.59629 12.603C2.32606 13.2945 1.85352 14.8663 2.61648 16.1122L3.8957 15.3289ZM3.57103 17.6711C4.31675 18.8889 5.93027 19.2757 7.1771 18.597L6.45993 17.2795C5.88055 17.5949 5.15889 17.3918 4.85025 16.8878L3.57103 17.6711ZM17.4386 6.7757L17.5401 6.72046L16.8229 5.40301L16.7214 5.45825L17.4386 6.7757ZM6.45993 6.72045L6.56142 6.77569L7.27858 5.45824L7.1771 5.403L6.45993 6.72045ZM17.5401 17.2795L17.4386 17.2243L16.7214 18.5417L16.8229 18.597L17.5401 17.2795ZM6.56142 17.2243L6.45994 17.2795L7.17709 18.597L7.27858 18.5418L6.56142 17.2243ZM3.59629 11.397C4.07404 11.6571 4.07404 12.3429 3.59629 12.603L4.31345 13.9205C5.83498 13.0922 5.83498 10.9078 4.31345 10.0795L3.59629 11.397ZM7.27858 18.5418C7.77798 18.2699 8.38635 18.6314 8.38635 19.2H9.88635C9.88635 17.4934 8.06035 16.4084 6.56142 17.2243L7.27858 18.5418ZM15.6136 19.2C15.6136 18.6314 16.222 18.2699 16.7214 18.5417L17.4386 17.2243C15.9397 16.4083 14.1136 17.4934 14.1136 19.2H15.6136ZM20.4037 12.603C19.926 12.3429 19.926 11.6571 20.4037 11.397L19.6866 10.0795C18.165 10.9078 18.165 13.0922 19.6866 13.9204L20.4037 12.603ZM6.56142 6.77569C8.06035 7.59165 9.88635 6.50663 9.88635 4.8H8.38635C8.38635 5.3686 7.77798 5.7301 7.27858 5.45824L6.56142 6.77569ZM16.7214 5.45825C16.222 5.73011 15.6136 5.36861 15.6136 4.8H14.1136C14.1136 6.50663 15.9397 7.59166 17.4386 6.7757L16.7214 5.45825ZM14.25 12C14.25 13.2426 13.2426 14.25 12 14.25V15.75C14.0711 15.75 15.75 14.0711 15.75 12H14.25ZM12 14.25C10.7574 14.25 9.75001 13.2426 9.75001 12H8.25001C8.25001 14.0711 9.92894 15.75 12 15.75V14.25ZM9.75001 12C9.75001 10.7574 10.7574 9.75 12 9.75V8.25C9.92894 8.25 8.25001 9.92893 8.25001 12H9.75001ZM12 9.75C13.2426 9.75 14.25 10.7574 14.25 12H15.75C15.75 9.92893 14.0711 8.25 12 8.25V9.75Z" fill="#131118"/>
</svg>

<?xml version="1.0" encoding="utf-8"?>
<!-- Generator: Adobe Illustrator 28.1.0, SVG Export Plug-In . SVG Version: 6.00 Build 0)  -->
<svg version="1.1" id="Layer_1" xmlns="http://www.w3.org/2000/svg" xmlns:xlink="http://www.w3.org/1999/xlink" x="0px" y="0px"
	 viewBox="0 0 24 24" style="enable-background:new 0 0 24 24;" xml:space="preserve">
<style type="text/css">
	.st0{fill:#FFFFFF;}
</style>
<path class="st0" d="M20.7,15.7l-0.6-0.4l0,0L20.7,15.7z M19.8,17.3l0.6,0.4l0,0L19.8,17.3z M3.3,8.3L2.6,7.9l0,0L3.3,8.3z M4.2,6.7
	l0.6,0.4L4.2,6.7z M6.8,6.1l0.4-0.7l0,0L6.8,6.1z M4,10.7l-0.4,0.7l0,0L4,10.7z M17.2,17.9l-0.4,0.7l0,0L17.2,17.9z M20,13.3
	l-0.4,0.7v0L20,13.3z M4.2,17.3l-0.6,0.4l0,0L4.2,17.3z M3.3,15.7l0.6-0.4l0,0L3.3,15.7z M19.8,6.7l0.6-0.4l0,0L19.8,6.7z M20.7,8.3
	l-0.6,0.4l0,0L20.7,8.3z M20,10.7l0.4,0.7L20,10.7z M17.2,6.1l0.4,0.7l0,0L17.2,6.1z M4,13.3l0.4,0.7l0,0L4,13.3z M6.8,17.9
	l-0.4-0.7h0L6.8,17.9z M17.1,6.1l-0.4-0.7L17.1,6.1z M6.9,6.1L6.6,6.8l0,0L6.9,6.1z M17.1,17.9l0.4-0.7l0,0L17.1,17.9z M6.9,17.9
	l0.4,0.7l0,0L6.9,17.9z M11,3.8H13V2.2H11V3.8z M13,20.2H11v1.5H13V20.2z M11,20.2c-0.7,0-1.2-0.5-1.2-1H8.4c0,1.4,1.2,2.5,2.7,2.5
	V20.2z M14.1,19.2c0,0.5-0.5,1-1.2,1v1.5c1.4,0,2.7-1.1,2.7-2.5H14.1z M13,3.8c0.7,0,1.2,0.5,1.2,1.1h1.5c0-1.4-1.2-2.6-2.7-2.6V3.8
	z M11,2.2c-1.4,0-2.7,1.1-2.7,2.6h1.5c0-0.5,0.5-1.1,1.2-1.1V2.2z M20.1,15.3l-1,1.6l1.3,0.8l1-1.6L20.1,15.3z M3.9,8.7l1-1.6
	L3.6,6.3l-1,1.6L3.9,8.7z M4.9,7.1c0.3-0.5,1-0.7,1.6-0.4l0.7-1.3C5.9,4.7,4.3,5.1,3.6,6.3L4.9,7.1z M4.3,10.1
	C3.8,9.8,3.6,9.1,3.9,8.7L2.6,7.9c-0.8,1.2-0.3,2.8,1,3.5L4.3,10.1z M19.1,16.9c-0.3,0.5-1,0.7-1.6,0.4l-0.7,1.3
	c1.2,0.7,2.9,0.3,3.6-0.9L19.1,16.9z M21.4,16.1c0.8-1.2,0.3-2.8-1-3.5l-0.7,1.3c0.6,0.3,0.7,0.9,0.4,1.4L21.4,16.1z M4.9,16.9
	l-1-1.6l-1.3,0.8l1,1.6L4.9,16.9z M19.1,7.1l1,1.6l1.3-0.8l-1-1.6L19.1,7.1z M20.1,8.7c0.3,0.5,0.1,1.1-0.4,1.4l0.7,1.3
	c1.3-0.7,1.7-2.3,1-3.5L20.1,8.7z M17.5,6.7c0.6-0.3,1.3-0.1,1.6,0.4l1.3-0.8c-0.7-1.2-2.4-1.6-3.6-0.9L17.5,6.7z M3.9,15.3
	c-0.3-0.5-0.1-1.1,0.4-1.4l-0.7-1.3c-1.3,0.7-1.7,2.3-1,3.5L3.9,15.3z M3.6,17.7c0.7,1.2,2.4,1.6,3.6,0.9l-0.7-1.3
	c-0.6,0.3-1.3,0.1-1.6-0.4L3.6,17.7z M17.4,6.8l0.1-0.1l-0.7-1.3l-0.1,0.1L17.4,6.8z M6.5,6.7l0.1,0.1l0.7-1.3L7.2,5.4L6.5,6.7z
	 M17.5,17.3l-0.1-0.1l-0.7,1.3l0.1,0.1L17.5,17.3z M6.6,17.2l-0.1,0.1l0.7,1.3l0.1-0.1L6.6,17.2z M3.6,11.4c0.5,0.3,0.5,0.9,0,1.2
	l0.7,1.3c1.5-0.8,1.5-3,0-3.8L3.6,11.4z M7.3,18.5c0.5-0.3,1.1,0.1,1.1,0.7h1.5c0-1.7-1.8-2.8-3.3-2L7.3,18.5z M15.6,19.2
	c0-0.6,0.6-0.9,1.1-0.7l0.7-1.3c-1.5-0.8-3.3,0.3-3.3,2H15.6z M20.4,12.6c-0.5-0.3-0.5-0.9,0-1.2l-0.7-1.3c-1.5,0.8-1.5,3,0,3.8
	L20.4,12.6z M6.6,6.8c1.5,0.8,3.3-0.3,3.3-2H8.4c0,0.6-0.6,0.9-1.1,0.7L6.6,6.8z M16.7,5.5c-0.5,0.3-1.1-0.1-1.1-0.7h-1.5
	c0,1.7,1.8,2.8,3.3,2L16.7,5.5z M14.2,12c0,1.2-1,2.2-2.2,2.2v1.5c2.1,0,3.8-1.7,3.8-3.8H14.2z M12,14.2c-1.2,0-2.2-1-2.2-2.2H8.3
	c0,2.1,1.7,3.8,3.7,3.8V14.2z M9.8,12c0-1.2,1-2.2,2.2-2.2V8.2c-2.1,0-3.7,1.7-3.7,3.8H9.8z M12,9.8c1.2,0,2.2,1,2.2,2.2h1.5
	c0-2.1-1.7-3.8-3.8-3.8V9.8z"/>
</svg>
